X: 31250
T: Paddy Fahy's
R: jig
M: 6/8
K: Cmajor
|:~c3 dcB|cGE CE/F/G|~F3 DEF|GAB ced|
~c3 dcB|cGE CE/F/G|~F3 DGF|ECB, CE/F/G:|
|:~c3 ~g3|ea^f {a}gec|A2 f fef|Acf afd|
~c3 ~g3|ea^f {a}g2 a|gec fdB|cGE CE/F/G:|

